!!!OTL: "Der Kuechenjunge und die Koenigstochter" HABT IHR KEINEN MANN
!!!ARE: Europa, Mitteleuropa, Deutschland, Hessen
!!!SCT: Z1079
!!!YEM: Copyright 1995, estate of Helmut Schaffrath.
**kern
*ICvox
*Ivox
*M4/4
*k[b-e-a-d-]
*A-:
{8e-
=1
4a-
8a-
8a-
4.a-
8cc
=2
8b-
8cc
8b-
8b-
4.a-}
{8a-
=3
4b-
4b-
4ee-
4ee-
=4
2b-
4ee-}
{8cc
8dd-
=5
4ee-
8ff
8ee-
4dd-
8b-
8cc
=6
8dd-
8dd-
8ee-
8dd-
4.cc}
{8cc
=7
4ee-
4a-
4a-
4g
=8
2f
2e-}
=9
{4cc
4a-
2a-
=10
8a-
8b-
8cc
8dd-
4.ee-}
{8ee-
=11
4dd-
4b-
4ee-
4cc
=12
2b-
4a-
8r}
==
!!!AGN: Romanze, Ballade
!!!ONB: ESAC (Essen Associative Code) Database: ZUCCAL
!!!AMT: simple quadruple
!!!AIN: vox
!!!EED: Helmut Schaffrath
!!!EEV: 1.0
*-
